projects/vfh1/img/icons/youtube.svg

<svg viewBox="0 0 31 22" fill="none" xmlns="http://www.w3.org/2000/svg">
<path fill="currentColor" d="M15.9012 0.83606H16.0674C17.6033 0.841665 25.3856 0.89772 27.4839 1.46201C28.1183 1.63422 28.6963 1.9699 29.1603 2.43551C29.6242 2.90111 29.9579 3.48032 30.1279 4.11527C30.3166 4.82529 30.4492 5.76515 30.5389 6.73489L30.5576 6.92922L30.5987 7.41503L30.6137 7.60935C30.7351 9.31715 30.7501 10.9166 30.7519 11.266V11.4061C30.7501 11.7686 30.7333 13.4764 30.5987 15.2552L30.5838 15.4514L30.567 15.6457C30.4735 16.7145 30.3353 17.7758 30.1279 18.5569C29.9584 19.1921 29.6249 19.7715 29.1609 20.2372C28.6968 20.7029 28.1185 21.0384 27.4839 21.2101C25.3165 21.7931 17.0783 21.8342 15.9367 21.8361H15.6713C15.094 21.8361 12.706 21.8248 10.2022 21.7389L9.8846 21.7277L9.72204 21.7202L9.40253 21.7071L9.08302 21.6941C7.00899 21.6025 5.03399 21.4549 4.12404 21.2082C3.48966 21.0367 2.91151 20.7015 2.44748 20.2361C1.98346 19.7708 1.64987 19.1917 1.48012 18.5569C1.27272 17.7777 1.13445 16.7145 1.04102 15.6457L1.02607 15.4495L1.01113 15.2552C0.918912 13.9891 0.867813 12.7204 0.85791 11.451L0.85791 11.2211C0.861647 10.8194 0.876595 9.43113 0.977494 7.89896L0.990573 7.70651L0.996179 7.60935L1.01113 7.41503L1.05223 6.92922L1.07092 6.73489C1.16061 5.76515 1.29327 4.82342 1.48199 4.11527C1.65145 3.48007 1.98492 2.90058 2.44896 2.4349C2.913 1.96921 3.49131 1.63371 4.12591 1.46201C5.03586 1.2191 7.01086 1.06962 9.08489 0.976196L9.40253 0.963117L9.72391 0.951906L9.8846 0.946301L10.2041 0.933222C11.9824 0.875998 13.7614 0.84423 15.5405 0.837928H15.9012V0.83606ZM12.8163 6.83392V15.8363L20.5836 11.337L12.8163 6.83392Z"/>
</svg>

<svg viewBox="0 0 31 22" fill="none" xmlns="http://www.w3.org/2000/svg"><path fill="currentColor" d="M15.901.836h.166c1.536.006 9.319.062 11.417.626a3.756 3.756 0 012.644 2.653c.189.71.321 1.65.41 2.62l.02.194.04.486.016.194a60.35 60.35 0 01.138 3.657v.14c-.002.363-.019 2.07-.153 3.85l-.015.195-.017.195c-.093 1.069-.232 2.13-.44 2.91a3.75 3.75 0 01-2.643 2.654c-2.168.583-10.406.624-11.547.626h-.266c-.577 0-2.965-.011-5.469-.097l-.317-.011-.163-.008-.32-.013-.319-.013c-2.074-.091-4.049-.24-4.959-.486a3.75 3.75 0 01-2.644-2.651c-.207-.78-.346-1.842-.439-2.911l-.015-.197-.015-.194a58.667 58.667 0 01-.153-3.804v-.23c.004-.402.019-1.79.12-3.322l.013-.192.005-.098.015-.194.041-.486.019-.194c.09-.97.222-1.912.411-2.62a3.75 3.75 0 012.644-2.653c.91-.243 2.885-.392 4.959-.486l.318-.013.32-.011.162-.006.32-.013C11.981.876 13.76.844 15.54.838h.361V.836zm-3.085 5.998v9.002l7.768-4.499-7.768-4.503z"/></svg>
